image/mob.svg

<svg aria-hidden="true" style="position: absolute; width: 0; height: 0; overflow: hidden;" version="1.1" xmlns="http://www.w3.org/2000/svg" xmlns:xlink="http://www.w3.org/1999/xlink">
<defs>
<symbol id="lettermob" viewBox="0 0 43 32">
<path fill="#757575" style="fill: var(--color1, #757575)" d="M38.667 0h-34.667c-2.206 0-4 1.675-4 3.734v22.404c0 2.059 1.794 3.734 4 3.734h34.667c2.206 0 4-1.675 4-3.734v-22.404c0-2.059-1.794-3.734-4-3.734zM38.667 2.489c0.181 0 0.353 0.035 0.511 0.096l-17.844 14.437-17.844-14.437c0.158-0.061 0.33-0.096 0.511-0.096h34.667zM38.667 27.383h-34.667c-0.736 0-1.333-0.558-1.333-1.245v-20.922l17.793 14.395c0.251 0.203 0.563 0.304 0.874 0.304s0.622-0.101 0.874-0.304l17.793-14.395v20.922c0 0.687-0.598 1.245-1.333 1.245z"></path>
</symbol>
<symbol id="telmob" viewBox="0 0 21 32">
<path fill="#757575" style="fill: var(--color1, #757575)" d="M18.133 0h-14.933c-1.765 0-3.2 1.34-3.2 2.987v25.889c0 1.647 1.435 2.987 3.2 2.987h14.933c1.765 0 3.2-1.34 3.2-2.987v-25.889c0-1.647-1.435-2.987-3.2-2.987zM3.2 1.991h14.933c0.589 0 1.067 0.446 1.067 0.996v20.91h-17.067v-20.91c0-0.549 0.478-0.996 1.067-0.996zM18.133 29.872h-14.933c-0.589 0-1.067-0.446-1.067-0.996v-2.987h17.067v2.987c0 0.55-0.478 0.996-1.067 0.996z"></path>
<path fill="#757575" style="fill: var(--color1, #757575)" d="M5.021 27.177c0.417 0.389 0.417 1.020 0 1.409s-1.092 0.389-1.508 0c-0.417-0.389-0.417-1.020 0-1.409s1.092-0.389 1.508 0z"></path>
</symbol>
</defs>
</svg>

<svg aria-hidden="true" style="position:absolute;width:0;height:0" xmlns="http://www.w3.org/2000/svg" overflow="hidden"><defs><symbol id="lettermob" viewBox="0 0 43 32"><path fill="var(--color1, #757575)" d="M38.667 0H4C1.794 0 0 1.675 0 3.734v22.404c0 2.059 1.794 3.734 4 3.734h34.667c2.206 0 4-1.675 4-3.734V3.734c0-2.059-1.794-3.734-4-3.734zm0 2.489c.181 0 .353.035.511.096L21.334 17.022 3.49 2.585c.158-.061.33-.096.511-.096h34.667zm0 24.894H4c-.736 0-1.333-.558-1.333-1.245V5.216L20.46 19.611c.251.203.563.304.874.304s.622-.101.874-.304L40.001 5.216v20.922c0 .687-.598 1.245-1.333 1.245z"/></symbol><symbol id="telmob" viewBox="0 0 21 32"><path fill="var(--color1, #757575)" d="M18.133 0H3.2C1.435 0 0 1.34 0 2.987v25.889c0 1.647 1.435 2.987 3.2 2.987h14.933c1.765 0 3.2-1.34 3.2-2.987V2.987c0-1.647-1.435-2.987-3.2-2.987zM3.2 1.991h14.933c.589 0 1.067.446 1.067.996v20.91H2.133V2.987c0-.549.478-.996 1.067-.996zm14.933 27.881H3.2c-.589 0-1.067-.446-1.067-.996v-2.987H19.2v2.987c0 .55-.478.996-1.067.996z"/><path fill="var(--color1, #757575)" d="M5.021 27.177c.417.389.417 1.02 0 1.409s-1.092.389-1.508 0c-.417-.389-.417-1.02 0-1.409s1.092-.389 1.508 0z"/></symbol></defs></svg>
